X:50
T:Lowland Lasses,The. TJD.50
T:Kate Dalrymple,aka. TJD.50
M:4/4
L:1/8
Q:1/4=140
S:T.J.Dixon MS1, Lincolnshire, early 19thC
R:reel
A:Lincolnshire, Holton le Moor
Z:vmp.R.Greig2010
K:G
G2>B2 A2>B2|G2(3GAB A2>B2|G2g2edcB|ABcAB2G2|!
d2>e2d2(Bc)|d2>e2d2(Bc)|d2g2d2g2|dgfe edcB|!
c2>e2B2>d2|A2B2 dcBA|G2g2edcB|ABcAB2G2|]

